X: 1
T: The Valentine
T: 8x32S 3C (Linda Gaul, 5 Dances 2009)
P: Fiona's Valentine
C: Marian Anderson
R: Strathspey
K: D
M: 4/4
L: 1/16
|:A4|d4 ec3 d3e f3g|f3g a3f gB3 B4|Ad3 d4 da3 a3f|g3f e3d B3c ((3d2c2B2) |
Ad3 d4 da3 a4|g3f e3d B3A ((3G2A2B2) |FA3 A3f g3f e3d|((3B2c2d2) e3c d4 d2e2|
f4 f4 dB3 B4|g3f e3d B3c ((3d2c2B2) |AF3 F4 FD3 D3F|G3F E3D B,3C ((3D2C2B2) |
A,4 F3G EA,3 A,4|((3D2E2F2) ((3E2F2G2) A3B GE3|Ad3 df3 g3f e3d|((3B2c2d2) e3c d4:|
